X:1
T:Arda l'alma
T:André Vierendeels 
T:Source : Melody from "Corona di Sacre canzoni o Laude spirituali" (Tenor voice) Firenze---Eredi Francesco Orofri---1689. Editor : André Vierendeels (06/12/17). Notes : Original clef : C4, other voices supplied editorially Editorial accidentals above the staff Music compiled by Matteo Coferati
T:Arda l'alma
T:©
T:©
C:André Vierendeels
Z:©
%%score [ 1 2 3 ]
L:1/8
Q:1/4=120
M:4/4
K:F
V:1 treble nm="Soprano 1" snm="S 1"
V:2 treble nm="Soprano 2" snm="S 2"
V:3 treble-8 nm="Tenor" snm="T"
V:1
"^1)" A2 c2 F2 G2 | B2 c2 A2 c2 | F4 A4 | G2 E2 F4 | A2 d2 d2 c2 | d4 B4 | c2 e2 A4- | %7
w: Ar- da l'al- ma,|ac- cen- * da'l|pe- tro,|Sant' ar- dor,|_ e pu- ra|fè, poi|che _ piu|
w: Do- glia, e pe-|na, e pian- to'e|no- ia,|chi non se-|* gue'l Ciel a-|vra, glo-|ria e- ri-|
 A2 G2 A2 c2 | A4 A4 | A2 A2 d2 BG | G2 ^F2 G4 | d4 A2 ^F2 | G2 BB A2 A2 | A2 A2 G2 G2 | %14
w: _ non han ri-|cet- to,|em- pie col- pe en-|tro di me,|fug- gi'O cor,|fug- gi cor mi- o,|fug- g'il mon- do,|
w: * so'e pre- mio'e|gio- ia,|chi se- guir Gie- su|vor- * rà,|fug- gi'O cor,|fug- go cor mi- o,|fug- g'il mon- do,|
 B2 c2 cBAG | G2 ^F2 !fermata!G4 :| %16
w: fug- g'il mon- do'e se- gui|Di- * o.|
w: fug- g'il mon- d'e se- gui|Di- * o.|
V:2
"^2)""^1)" F2 E2 D2 D2 | F2 E4 G2 | D4 E4 | D2 G2 D4- | F2 F2 B2 F2 | F4 D4 | A2 G2 F4 | %7
w: Ar- da l'al- ma,|ac- cen- da'l|pe- tro,|Sant ar- dor,|_ e pu- ra|fè, poi|che _ piu|
w: Ch'io tra fol- li,|e van di-|let- ti,|nu- tra l'al-|* ma'e'l sen mai|piu, chi|io di col-|
 D2 E2 F2 E2 | F4 E4 | F2 E2 G2 G2 | D2 D2 D4 | A2 A2 D4 | D2 DD C2 C2 | F2 D2 E2 E2 | G2 G2 G4 | %15
w: non _ han ri-|cet- to,|em- pie col p'en-|tro di me,|fug- gi'O cor,|fug- gi cor mi- o,|fug- g'il mon- do,|se- gui Di-|
w: pe'l co- * re'in-|fet- ti,|non sia ve- r'o|mio Gie- su,|fug- gi'O cor,|fug- gi cor mi- o,|fug- g'il mon- do,|se- gui Di-|
 !fermata!D8 :| %16
w: o.|
w: o.|
V:3
"^3)""^1)""^4)" d2 A2 B2 B2- | B2 A2 c3 G | A4 A4 | B2 c2 d4- | d2 B2 B3 A | B8 | f2 c2 d4- | %7
w: Ar- da l'al- ma,|_ ac- cen- da'l|pe- tro,|Sant' ar- dor,|_ e pu- ra|fè,|poi che piu|
w: Di bei Ci- gli'e|_ di bell' ol-|* tro,|vol- to'e sen|_ dim- mi che|val:|se qual Ro-|
 d2 c2 d c2 B | c4 c4 | d2 A2 B2 BB | A3 A G4 | z2 ^FG A4 | G2 GG F2 F2 | z2 AB c2 c2 | %14
w: _ non han _ ri-|cet- to,|em- pie col- pe en-|tro di me,|fug- gi'O cor,|fug- gi cor mi- o,|fug- g'il mon- do,|
w: * sa'è'l vi- * ver|no- stro,|cha in un di mor-|t'e na- tal?|fug- fi'O cor,|fug- gi coe mi- o,|fug- g'il mon- do,|
 z2 cd _edcB | A4 !fermata!G4 :| %16
w: fug- g'il mon- do'e se- gui|Di- o.|
w: fug- g'il mon- doe se- gui|Di- o.|

